!!!OTL: ES KANN JA NICHT IMMER SO BLEIBEN
!!!ARE: Europa, Mitteleuropa, Deutschland
!!!SCT: B0326
!!!YEM: Copyright 1995, estate of Helmut Schaffrath.
**kern
*ICvox
*Ivox
*M6/4
*k[f#]
*G:
{4d
=1
4.b
8b
4b
4b
4a
4b
=2
2dd
4cc
2b}
{4b
=3
4a
4dd
4a
4g
4f#
4e
=4
1d
4r}
{4d
=5
4d
4e
4f#
4g
4a
4b
=6
2.cc
2a}
{4dd
=7
4g
4g
4g
4a
4g
4f#
=8
2.dd
4ee
4cc}
{4a
=9
4g
4g
4g
4a
4g
4f#
=10
1g
4r}
==
!!!AGN: Trink - Lied
!!!ONB: ESAC (Essen Associative Code) Database: BOEHME
!!!AMT: compound duple
!!!AIN: vox
!!!EED: Helmut Schaffrath
!!!EEV: 1.0
*-
